!!!COM:	Beethoven	.
!!!OTL:	24	.
!!!Variation:	Variation	.
**harm	**kern	**color
*	*clefG2	*
*	*k[f#c#]	*
*M2/4	*M2/4	*
*D:	*D:	*
=417	=417	=417
*	*	*
2I	4ff#	black
.	4ff#	black
4V7	4ee	black
*	*	*
=418	=418	=418
2I	8dd	black
*	*	*
.	[8ddJ	black
.	(16ddLL]	.
.	32cc#L	hotpink
.	32ddJJ	hotpink
.	32eeLL	hotpink
.	32ff#	hotpink
.	32gg	hotpink
.	32aaJJJ	hotpink
4V7b/IV	32bbLLL	black
.	32ccc	hotpink
.	32ccc#	hotpink
.	32dddJJJ)	black
*	*	*
.	16.r	.
.	32ddd	black
=419	=419	=419
2.IV	16ddd	black
.	16r	.
.	[8dd	black
.	16dd]	.
.	16r	.
.	(24a#'LL	black
.	24b'	hotpink
.	24cc#'JJ	hotpink
.	24dd'LL	black
.	24ff#'	black
.	24gg'J	black
.	24aa#'L	black
.	24bb'	hotpink
.	24ccc#'JJ)	hotpink
=420	=420	=420
2.Ib	16ddd	black
.	16r	.
.	[8dd	black
.	16dd]	.
.	16r	.
.	(24g#'LL	black
.	24a'	black
.	24cc#'JJ	black
.	24dd'LL	black
.	24ee#'	black
.	24ff#'J)	hotpink
.	(32ggLL	hotpink
.	32gg#	hotpink
.	32aa	hotpink
.	32ggJJJ	hotpink
=421	=421	=421
2.Ic	16ff#')	black
.	16r	.
*	*	*
.	(16.ff#LL	black
.	32eeJJk	hotpink
.	16dd)	black
.	16ALL	black
.	16d	black
.	16e	hotpink
.	8f#	black
.	(16.ff#LL	black
.	32ddJJk)	black
=422	=422	=422
2.V7	8gg	black
.	16.g	black
.	32f#	hotpink
.	16e	black
.	(16aLL	black
.	16ee	black
.	16ff#	hotpink
.	8gg	black
.	(16.ggLL	black
.	32eeJJk	black
=423	=423	=423
8Ib	32aaLLL)	black
.	32aa	black
.	32ee#	black
.	32ff#JJJ	black
*	*	*
8V7d/ii	32r	.
.	(32ff#LLL	black
.	32ccc	black
.	32bbJJJ)	black
8iib	32r	.
.	(32bbLLL	black
.	32dd#	black
.	32eeJJJ)	black
8V7d	32r	.
.	(32eeLLL	black
.	32bb	black
.	32aaJJJ)	black
4Ib	32r	.
.	(32aaLLL	black
.	32eee	black
.	32dddJJ	hotpink
.	32cccLL	hotpink
.	32bb	hotpink
.	32aa	hotpink
.	32ggJJJ	hotpink
*	*	*
=424	=424	=424
2.V	32ff#LLL	black
.	32gg	hotpink
.	32gg#	hotpink
.	32aaJJ	hotpink
*	*	*
.	32bbLL	hotpink
.	32aa	hotpink
.	32gg#	hotpink
.	32aaJJJ)	black
.	32r	.
.	(32aaLLL	black
.	32gg#	hotpink
.	32aaJJ	hotpink
.	32bbLL	hotpink
.	32aa	hotpink
.	32gg#	hotpink
.	32aaJJJ)	black
.	q8gg#	.
.	q8aa	.
.	8aa	black
*-	*-	*-
